X: 3
T: Missa [sine nomine] &mdash; Credo
C: Anonymous
%%abc-version 2.0
%%abcx-abcm2ps-target-version 5.9.1 (29 Sep 2008)
%%abc-creator hum2abc beta
%%abcx-conversion-date 2022/03/06 13:05:56
%%abc-copyright Copyright 2016, Kolb, Paul
%%abc-edited-by Zybina, Karina
%%humdrum-veritas 2052246510
%%humdrum-veritas-data 1768288218
%%linebreak <none>
%%barnumbers 0
L: 1/4
M: 2/2
N: Derived from Ano0207c-Missa_sine_nomine_Credo.krn
%%staves [1 2 3 4]
V: 1 clef=treble
V: 2 clef=treble-8
V: 3 clef=treble-8
V: 4 clef=bass
K: F
[V:1] z4 | 
[V:2] G2A2 | 
[V:3] z4 | 
[V:4] z2D,2 | 
[V:1] z2A2 | 
[V:2] G/A/B/c/d2 | 
[V:3] G2A2 | 
[V:4] _E,2D,2 | 
[V:1] B2A2 | 
[V:2] B/c/d/e/ff | 
[V:3] GGF/G/A/B/ | 
[V:4] G,,2D,D, | 
[V:1] A2GF | 
[V:2] ec>BA- | 
[V:3] c/d<ed/d- | 
[V:4] A,,>B,,C,D, | 
[V:1] G2F2- | 
[V:2] AGA2 | 
[V:3] d^cd2- | 
[V:4] E,2D,2- | 
[V:1] FFAA | 
[V:2] zfff | 
[V:3] dddd | 
[V:4] D,D,D,D, | 
[V:1] B2AB- | 
[V:2] g2ff | 
[V:3] d2dd | 
[V:4] G,,2D,D, | 
[V:1] BA2G | 
[V:2] f2d3/e/ | 
[V:3] cAB2 | 
[V:4] F,2G,2 | 
[V:1] A2zA | 
[V:2] f>ec2 | 
[V:3] A4 | 
[V:4] F,2F,2 | 
[V:1] AA>AA | 
[V:2] f>ffc | 
[V:3] ccc3/c/ | 
[V:4] F,F,>F,F, | 
[V:1] GGFB- | 
[V:2] _e/d/c/B/AG- | 
[V:3] c_edd- | 
[V:4] C,2D,G,,- | 
[V:1] BAGA- | 
[V:2] G/G/ABA | 
[V:3] dcBc- | 
[V:4] G,,F,G,F,- | 
[V:1] AG2^F | 
[V:2] cGd3/d/ | 
[V:3] cBAA | 
[V:4] F,G,D,D, | 
[V:1] G4 | 
[V:2] B2dd | 
[V:3] G4 | 
[V:4] G,,2B,B, | 
[V:1] z2BB | 
[V:2] ccde | 
[V:3] z4 | 
[V:4] A,A,G,G, | 
[V:1] AAGG | 
[V:2] fdee | 
[V:3] z4 | 
[V:4] D,2zG, | 
[V:1] DFGA | 
[V:2] f2z2 | 
[V:3] zdcc | 
[V:4] F,D,E,F, | 
[V:1] BABc | 
[V:2] zf_e_e | 
[V:3] BFGA | 
[V:4] G,D,z2 | 
[V:1] d2c/B/A/G/ | 
[V:2] d>cA2 | 
[V:3] B2c2 | 
[V:4] G,,2A,,2 | 
[V:1] FBAc- | 
[V:2] zf2f | 
[V:3] d2cA | 
[V:4] B,,B,,F,2 | 
[V:1] cB2A | 
[V:2] def2 | 
[V:3] B2c2 | 
[V:4] G,2F,2 | 
[V:1] B2z2 | 
[V:2] d2cd- | 
[V:3] B2z2 | 
[V:4] B,,2A,,B,, | 
[V:1] d2cd- | 
[V:2] dc/B/AB | 
[V:3] z4 | 
[V:4] G,,2z2 | 
[V:1] dc/B/AB | 
[V:2] G2FG | 
[V:3] z2zd- | 
[V:4] z4 | 
[V:1] G2F2 | 
[V:2] E2D2 | 
[V:3] dcdc/B/ | 
[V:4] z2zD, | 
[V:1] z4 | 
[V:2] z4 | 
[V:3] ABGd- | 
[V:4] F,G,>E,F,- | 
[V:1] zD_EE | 
[V:2] z4 | 
[V:3] d/c/B2A | 
[V:4] F,D,C,2 | 
[V:1] DF_E/D/G- | 
[V:2] z4 | 
[V:3] B2zG | 
[V:4] B,,2z2 | 
[V:1] G^FG2 | 
[V:2] z4 | 
[V:3] AAGB | 
[V:4] z4 | 
[V:1] z4 | 
[V:2] z4 | 
[V:3] A/G/c2=B | 
[V:4] zC,D,D, | 
[V:1] z4 | 
[V:2] z2zc | 
[V:3] c2z2 | 
[V:4] C,E,D,/C,/F,- | 
[V:1] z2zA | 
[V:2] decf- | 
[V:3] z4 | 
[V:4] F,E,F,2 | 
[V:1] BBAc | 
[V:2] fef2 | 
[V:3] z2c2 | 
[V:4] G,2F,2 | 
[V:1] BGA/G/F/E/ | 
[V:2] zdf2 | 
[V:3] dBcd- | 
[V:4] zG,F,D, | 
[V:1] DG2^F | 
[V:2] fd>cB/A/ | 
[V:3] dc/B/A2 | 
[V:4] F,G,D,2 | 
[V:1] G2DD | 
[V:2] B2B3/B/ | 
[V:3] G2BB | 
[V:4] z2G,,3/G,,/ | 
[V:1] DD_E2 | 
[V:2] BBG3/A/ | 
[V:3] BBc2 | 
[V:4] G,,G,,C,2 | 
[V:1] D2BB | 
[V:2] G2GG | 
[V:3] B2dd | 
[V:4] G,,2z2 | 
[V:1] BBB3/A/ | 
[V:2] GGG3/F/ | 
[V:3] ddd2- | 
[V:4] z4 | 
[V:1] FB2A | 
[V:2] DG2F | 
[V:3] dBc2 | 
[V:4] z4 | 
[V:1] B2BB | 
[V:2] G2dd | 
[V:3] B2GG | 
[V:4] z2G,,G,, | 
[V:1] B>BBA- | 
[V:2] ddd3/c/ | 
[V:3] G>GGF- | 
[V:4] G,,>G,,G,,D,- | 
[V:1] AFE2 | 
[V:2] Ad2^c | 
[V:3] F/G/A2A | 
[V:4] D,D,A,,2 | 
[V:1] D2z2 | 
[V:2] d2z2 | 
[V:3] F2G2 | 
[V:4] B,,2G,,C, | 
[V:1] z4 | 
[V:2] z4 | 
[V:3] GGG2 | 
[V:4] B,,C,G,,2 | 
[V:1] G3G | 
[V:2] GcBc | 
[V:3] z4 | 
[V:4] z4 | 
[V:1] G2z2 | 
[V:2] G2z2 | 
[V:3] z2G2 | 
[V:4] z2C,2 | 
[V:1] z4 | 
[V:2] z4 | 
[V:3] G3G | 
[V:4] B,,C,G,,2 | 
[V:1] G2GG | 
[V:2] c2BG | 
[V:3] z4 | 
[V:4] z4 | 
[V:1] G2Gz | 
[V:2] c2Gz | 
[V:3] z2zG | 
[V:4] z2zG,, | 
[V:1] z4 | 
[V:2] z4 | 
[V:3] G2GG | 
[V:4] C,2G,,B,, | 
[V:1] z2zG | 
[V:2] z2zG | 
[V:3] ^F2Gz | 
[V:4] A,,2G,,z | 
[V:1] G2GG | 
[V:2] c2GB | 
[V:3] z4 | 
[V:4] z4 | 
[V:1] ^F2GA- | 
[V:2] A2Gf- | 
[V:3] z2Gc- | 
[V:4] z2G,F,- | 
[V:1] AB2A/G/ | 
[V:2] ff>d_e | 
[V:3] cd2c/B/ | 
[V:4] F,B,,2C, | 
[V:1] ^F4 ||  
[V:2] d4 ||  
[V:3] A4 ||  
[V:4] D,4 ||  
[V:1] [M:2/2]z4 | 
[V:2] [M:2/2]z4 | 
[V:3] [M:2/2]z4 | 
[V:4] [M:2/2]B,,4 | 
[V:1] z4 | 
[V:2] F4 | 
[V:3] z4 | 
[V:4] A,,2B,,2 | 
[V:1] z4 | 
[V:2] E2F2 | 
[V:3] z4 | 
[V:4] C,2A,,2 | 
[V:1] z4 | 
[V:2] G2G2 | 
[V:3] z4 | 
[V:4] G,,>A,,B,,C,- | 
[V:1] z4 | 
[V:2] G3F/_E/ | 
[V:3] z4 | 
[V:4] C,/D,/_E,2D,/C,/ | 
[V:1] z4 | 
[V:2] D4 | 
[V:3] B4 | 
[V:4] B,,4 | 
[V:1] F4 | 
[V:2] z4 | 
[V:3] A2B2 | 
[V:4] D,2D,2 | 
[V:1] E2F2 | 
[V:2] z4 | 
[V:3] c2A2 | 
[V:4] C,2D,2 | 
[V:1] G2G2 | 
[V:2] z4 | 
[V:3] G2G2 | 
[V:4] G,,>A,,B,,C, | 
[V:1] G2E2 | 
[V:2] z4 | 
[V:3] B2G2 | 
[V:4] B,,G,,C,2 | 
[V:1] F2ED | 
[V:2] d2cd- | 
[V:3] F>GAB- | 
[V:4] D,2zG,,- | 
[V:1] G2A2 | 
[V:2] dc/B/AA | 
[V:3] BG2^F | 
[V:4] G,,/A,,/B,,/G,,/D,2 | 
[V:1] B2AA- | 
[V:2] G2D2 | 
[V:3] G2A2 | 
[V:4] zG,2^F, | 
[V:1] AGFA- | 
[V:2] zd2d | 
[V:3] B2AF | 
[V:4] G,2D,2 | 
[V:1] AG2^F | 
[V:2] d2d2 | 
[V:3] GBAA | 
[V:4] B,,G,,D,2 | 
[V:1] G4 | 
[V:2] B2c2 | 
[V:3] G4 | 
[V:4] _E,4 | 
[V:1] z4 | 
[V:2] df2_e | 
[V:3] A4 | 
[V:4] D,2C,2 | 
[V:1] F4 | 
[V:2] d2d2- | 
[V:3] B4 | 
[V:4] B,,3C, | 
[V:1] F2A2- | 
[V:2] dcAB | 
[V:3] A4 | 
[V:4] D,E,F,2- | 
[V:1] AGFE/D/ | 
[V:2] c2dD | 
[V:3] F3G | 
[V:4] F,2D,2 | 
[V:1] C2D2 | 
[V:2] E2Dd | 
[V:3] A2G2- | 
[V:4] A,,2B,,2 | 
[V:1] E2F2 | 
[V:2] c/B/A/G/A2 | 
[V:3] G2F2 | 
[V:4] C,E,D,2 | 
[V:1] D4 ||  
[V:2] B4 ||  
[V:3] G4 ||  
[V:4] G,,4 ||  
[V:1] [M:2/2]z4 | 
[V:2] [M:2/2]z4 | 
[V:3] [M:2/2]A2AA- | 
[V:4] [M:2/2]F,2F,F,- | 
[V:1] z4 | 
[V:2] z4 | 
[V:3] AAB3/B/ | 
[V:4] F,F,G,3/G,/ | 
[V:1] z4 | 
[V:2] z4 | 
[V:3] BBA3/F/ | 
[V:4] D,E,F,3/D,/ | 
[V:1] z4 | 
[V:2] z4 | 
[V:3] G/F/B2A | 
[V:4] _E,/F,/D,C,2 | 
[V:1] zBB3/B/ | 
[V:2] zdd3/d/ | 
[V:3] B2z2 | 
[V:4] B,,2z2 | 
[V:1] BBA3/F/ | 
[V:2] ddf3/d/ | 
[V:3] z4 | 
[V:4] z4 | 
[V:1] G/F/B2A | 
[V:2] _e/f/dc2 | 
[V:3] z4 | 
[V:4] z4 | 
[V:1] B2B3/B/ | 
[V:2] B2f3/f/ | 
[V:3] z2d3/d/ | 
[V:4] z2B,,3/B,,/ | 
[V:1] BBBB | 
[V:2] ffff | 
[V:3] dddd | 
[V:4] B,,B,,B,,B,, | 
[V:1] A4 | 
[V:2] f2zf- | 
[V:3] c4 | 
[V:4] F,4 | 
[V:1] A2GG | 
[V:2] fcc_e- | 
[V:3] z2c2 | 
[V:4] F,2C,C, | 
[V:1] G2F2 | 
[V:2] ecdf- | 
[V:3] GGB2 | 
[V:4] _E,2D,2 | 
[V:1] A2GG | 
[V:2] fc_e3/d/ | 
[V:3] A2c2 | 
[V:4] F,2C,C, | 
[V:1] G>_EFF | 
[V:2] c/B/cd2 | 
[V:3] GGBA- | 
[V:4] _E,2D,D, | 
[V:1] A2GG | 
[V:2] c2e2 | 
[V:3] AG/F/E2 | 
[V:4] F,2G,2 | 
[V:1] AFG2 | 
[V:2] AAG2 | 
[V:3] Dd2^c | 
[V:4] F,D,E,2 | 
[V:1] F2DD | 
[V:2] A2ff | 
[V:3] d2BB | 
[V:4] D,2z2 | 
[V:1] D/E/F/G/AB | 
[V:2] f2fg | 
[V:3] B>AFB | 
[V:4] z4 | 
[V:1] cd2^c | 
[V:2] ade2 | 
[V:3] ABA2 | 
[V:4] z4 | 
[V:1] ddd3/c/ | 
[V:2] d2z2 | 
[V:3] zBB3/c/ | 
[V:4] z4 | 
[V:1] BAGA- | 
[V:2] z4 | 
[V:3] dcBc- | 
[V:4] z4 | 
[V:1] AG2^F | 
[V:2] z4 | 
[V:3] c/B/GA2 | 
[V:4] z2D,D, | 
[V:1] G4 | 
[V:2] z4 | 
[V:3] G2zG | 
[V:4] _E,C,B,,C, | 
[V:1] zDEF | 
[V:2] z4 | 
[V:3] ABGA | 
[V:4] A,,G,,z2 | 
[V:1] DEFG | 
[V:2] z4 | 
[V:3] BcAG | 
[V:4] z4 | 
[V:1] EDz2 | 
[V:2] z2GA | 
[V:3] z4 | 
[V:4] C,D,E,C, | 
[V:1] z2FF | 
[V:2] BGAB | 
[V:3] z4 | 
[V:4] D,E,F,D, | 
[V:1] EFGE | 
[V:2] cAGg | 
[V:3] z2Gc- | 
[V:4] C,D,E,C, | 
[V:1] A>G E/D/G- | 
[V:2] fc/d/e2 | 
[V:3] ccc2 | 
[V:4] F,>E, C,/D,/E,- | 
[V:1] GF2E | 
[V:2] ec2c | 
[V:3] BAG2 | 
[V:4] E,F,C,2 | 
[V:1] F2zF | 
[V:2] A2z2 | 
[V:3] F2FD | 
[V:4] D,2B,,2 | 
[V:1] DF2_E/D/ | 
[V:2] z4 | 
[V:3] F>GAB- | 
[V:4] z4 | 
[V:1] C2B,2 | 
[V:2] z4 | 
[V:3] BAB2 | 
[V:4] z4 | 
[V:1] FDF3/G/ | 
[V:2] zfdf- | 
[V:3] z4 | 
[V:4] z4 | 
[V:1] AB2A | 
[V:2] f_e/d/c2 | 
[V:3] z4 | 
[V:4] z4 | 
[V:1] B2FD | 
[V:2] B2zf | 
[V:3] F3F | 
[V:4] B,,3B,, | 
[V:1] FDB,2 | 
[V:2] dfdB- | 
[V:3] F>FF2 | 
[V:4] B,,>B,,B,,2 | 
[V:1] FDFD | 
[V:2] Bfdf | 
[V:3] FFF3/F/ | 
[V:4] B,,B,,B,,3/B,,/ | 
[V:1] B,>CD2 | 
[V:2] dB>AF- | 
[V:3] F2B2 | 
[V:4] B,,4 | 
[V:1] zAAB | 
[V:2] Ffff- | 
[V:3] Adcd- | 
[V:4] F,D,F,B,, | 
[V:1] AG2^F | 
[V:2] fdd2 | 
[V:3] dc/B/A2 | 
[V:4] F,G,D,2 | 
[V:1] G4 | 
[V:2] B2z2 | 
[V:3] G2zB | 
[V:4] G,,4 | 
[V:1] GGG2 | 
[V:2] z4 | 
[V:3] BB2B | 
[V:4] z4 | 
[V:1] GA2F | 
[V:2] z4 | 
[V:3] c2cd- | 
[V:4] z4 | 
[V:1] FGEF | 
[V:2] z4 | 
[V:3] d/c/B/A/GF | 
[V:4] z4 | 
[V:1] DG2^F | 
[V:2] z4 | 
[V:3] G2A2 | 
[V:4] z4 | 
[V:1] G4 | 
[V:2] z2dd | 
[V:3] G4 | 
[V:4] z2G,G, | 
[V:1] z4 | 
[V:2] d2dd | 
[V:3] z4 | 
[V:4] B,2G,D, | 
[V:1] z4 | 
[V:2] cBA2 | 
[V:3] z4 | 
[V:4] F,G,D,F,- | 
[V:1] z4 | 
[V:2] c2cc | 
[V:3] z4 | 
[V:4] F,F,F,F, | 
[V:1] z4 | 
[V:2] cd>cB/A/ | 
[V:3] z4 | 
[V:4] F,/_E,/D,/C,/B,,2 | 
[V:1] z4 | 
[V:2] G/F/B2A | 
[V:3] z4 | 
[V:4] _E,D,C,2 | 
[V:1] zBBB | 
[V:2] B2z2 | 
[V:3] zddd | 
[V:4] B,,2z2 | 
[V:1] BBB3/A/ | 
[V:2] z4 | 
[V:3] ddGF/E/ | 
[V:4] z4 | 
[V:1] F/E/A2G- | 
[V:2] z4 | 
[V:3] D2FG | 
[V:4] z4 | 
[V:1] G^FG2 | 
[V:2] z4 | 
[V:3] A2G2 | 
[V:4] z4 | 
[V:1] GABc | 
[V:2] Bcde | 
[V:3] z4 | 
[V:4] z4 | 
[V:1] Ad2B | 
[V:2] f/e/d/c/Bd | 
[V:3] z4 | 
[V:4] z4 | 
[V:1] c/B/A/G/A2 | 
[V:2] eg2^f | 
[V:3] z4 | 
[V:4] z4 | 
[V:1] G2z2 | 
[V:2] g2z2 | 
[V:3] zGGG | 
[V:4] zG,,G,,G,, | 
[V:1] z4 | 
[V:2] z4 | 
[V:3] FGFB- | 
[V:4] B,,2D,_E, | 
[V:1] z2zB | 
[V:2] z2zd | 
[V:3] BAB2 | 
[V:4] C,C,B,,2 | 
[V:1] BBB3/A/ | 
[V:2] ddd3/d/ | 
[V:3] z4 | 
[V:4] z4 | 
[V:1] G2FG- | 
[V:2] _e/d/c/B/AG | 
[V:3] z4 | 
[V:4] z4 | 
[V:1] G/F/B2A | 
[V:2] B2c2 | 
[V:3] z4 | 
[V:4] z4 | 
[V:1] [M:3/2]B4B2 | 
[V:2] [M:3/2]B4f2 | 
[V:3] [M:3/2]z2z2d2 | 
[V:4] [M:3/2]z2z2B,,2 | 
[V:1] B4B2 | 
[V:2] f4f2 | 
[V:3] d4d2 | 
[V:4] B,,4B,,2 | 
[V:1] A4G2 | 
[V:2] f4g2 | 
[V:3] c4c2 | 
[V:4] F,4E,2 | 
[V:1] A2G3F | 
[V:2] f2e2f2 | 
[V:3] c6 | 
[V:4] F,2C,2F,2- | 
[V:1] F4E2 | 
[V:2] c6 | 
[V:3] A2G4 | 
[V:4] F,2C,4 | 
[V:1] F4z2 | 
[V:2] A4c2 | 
[V:3] F4z2 | 
[V:4] D,4C,2 | 
[V:1] z6 | 
[V:2] d4c2 | 
[V:3] D4F2 | 
[V:4] B,,4A,,2 | 
[V:1] D4F2 | 
[V:2] B4A2 | 
[V:3] G4A2 | 
[V:4] G,,4D,2 | 
[V:1] G4A2 | 
[V:2] G2d4 | 
[V:3] B4A2 | 
[V:4] B,,2G,,2D,2 | 
[V:1] B4A2 | 
[V:2] Bcd_ef2 | 
[V:3] G4F2 | 
[V:4] G,,4D,2 | 
[V:1] G4^F2 | 
[V:2] _e2d_ed2 | 
[V:3] GABcA2 | 
[V:4] _E,>F,G,C,D,2 | 
[V:1] GABcA2 | 
[V:2] B4z2 | 
[V:3] G4c2 | 
[V:4] G,,4z2 | 
[V:1] G4c2 | 
[V:2] d2e2f2 | 
[V:3] B2G2A2 | 
[V:4] z6 | 
[V:1] B2G2A2 | 
[V:2] gde2f2 | 
[V:3] G4z2 | 
[V:4] z6 | 
[V:1] G2D2E2 | 
[V:2] g2f2g2 | 
[V:3] z6 | 
[V:4] z6 | 
[V:1] F2G2^F2 | 
[V:2] d2BcA2 | 
[V:3] z6 | 
[V:4] z6 | 
[V:1] G4G2 | 
[V:2] G4z2 | 
[V:3] B4c2- | 
[V:4] G,,4C,2- | 
[V:1] G2G4 | 
[V:2] z2G4 | 
[V:3] c2c4 | 
[V:4] C,2_E,4 | 
[V:1] F4F2 | 
[V:2] A4F2 | 
[V:3] d4d2 | 
[V:4] D,4D,2 | 
[V:1] A4A2 | 
[V:2] f4f2- | 
[V:3] d4c2 | 
[V:4] D,4F,2 | 
[V:1] A2B2B2 | 
[V:2] f2d4 | 
[V:3] c2B4 | 
[V:4] F,2G,4 | 
[V:1] A2c3B | 
[V:2] f6 | 
[V:3] c4d2 | 
[V:4] F,4B,,2- | 
[V:1] B4A2 | 
[V:2] f2f4 | 
[V:3] B2c4 | 
[V:4] B,,2F,4 | 
[V:1] B4z2 | 
[V:2] d2>_e2f2 | 
[V:3] B4A2 | 
[V:4] B,,4D,2 | 
[V:1] B4c2 | 
[V:2] g4_e2 | 
[V:3] G4A2 | 
[V:4] _E,2>D,2C,2 | 
[V:1] d2>c2BA | 
[V:2] d2g3f | 
[V:3] B4G2- | 
[V:4] G,4G,,2 | 
[V:1] G2c3B | 
[V:2] ed2<c2d | 
[V:3] G2A3B | 
[V:4] B,,2A,,4 | 
[V:1] AG2<F2G | 
[V:2] e2d2f2- | 
[V:3] c2A2d2- | 
[V:4] A,,2D,4 | 
[V:1] A2B3A | 
[V:2] f2g4 | 
[V:3] d4B2 | 
[V:4] D,2G,,2G,2 | 
[V:1] G4^F2 | 
[V:2] _e2d4 | 
[V:3] c2A4 | 
[V:4] C,2D,4 | 
[V:1] G4 |]  
[V:2] d4 |]  
[V:3] G4 |]  
[V:4] G,,4 |]  


